public/images/other.svg

<svg height="58" viewBox="0 0 58 58" width="58" xmlns="http://www.w3.org/2000/svg"><g fill="none" fill-rule="evenodd" opacity=".8"><g fill-rule="nonzero"><path d="m29 38h-19c-.55228475 0-1-.4477153-1-1s.44771525-1 1-1h19c.5522847 0 1 .4477153 1 1s-.4477153 1-1 1z" fill="#101527"/><path d="m30.09 44h-20.09c-.55228475 0-1-.4477153-1-1s.44771525-1 1-1h20.09c.5522847 0 1 .4477153 1 1s-.4477153 1-1 1z" fill="#101527"/><path d="m34 50h-24c-.55228475 0-1-.4477153-1-1s.44771525-1 1-1h24c.5522847 0 1 .4477153 1 1s-.4477153 1-1 1z" fill="#101527"/><path d="m43 27.17c-.5522847 0-1-.4477153-1-1v-15.17c0-.5522847.4477153-1 1-1s1 .4477153 1 1v15.17c0 .5522847-.4477153 1-1 1z" fill="#101527"/><path d="m41 58h-38c-1.62003071.0335201-2.96176633-1.2500737-3-2.87v-52.26c.03823367-1.61992632 1.37996929-2.90352006 3-2.87h30c.5522847 0 1 .44771525 1 1s-.4477153 1-1 1h-30c-.50525928-.00428541-.9343321.36900795-1 .87v52.26c.0656679.500992.49474072.8742854 1 .87h38c.5522847 0 1-.4477153 1-1v-5.17c0-.5522847.4477153-1 1-1s1 .4477153 1 1v5.17c0 1.6568542-1.3431458 3-3 3z" fill="#101527"/><path d="m44 11c.0143756.0827134.0143756.1672866 0 .25.0089093.0462414.0089093.0937586 0 .14-.0487431.119193-.120049.2278496-.21.32-.0953502.0858873-.2032616.1567042-.32.21-.0462414.0089093-.0937586.0089093-.14 0-.1016187.0537392-.2150534.0812385-.33.0800401h-8c-.8079276.0001799-1.5817924-.3254815-2.1464578-.9033224-.5646653-.5778409-.8723939-1.35901005-.8535422-2.1667177v-7.93c-.0143756-.08271336-.0143756-.16728664 0-.25-.0089093-.04624144-.0089093-.09375856 0-.14.0955448-.24250703.287493-.43445524.53-.53.0462414-.00890928.0937586-.00890928.14 0 .162386-.05342106.337614-.05342106.5 0 .0462414-.00890928.0937586-.00890928.14 0 .119193.04874313.2278496.12004903.32.21.2168263.17481351.3509229.43213409.37.71v7.93c-.0194471.27712178.0772604.54984431.2669458.75280767s.4552517.31787383.7330542.31719233h8c.265803-.00153676.5212812.1028135.71.29.089951.0921504.1612569.200807.21.32.0089093.0462414.0089093.0937586 0 .14.0415529.0778151.0686576.1625175.08.25z" fill="#101527"/><path d="m40.58 10.000003h-5.58c-.2778025.0006785-.5433688-.11423197-.7330542-.31719533s-.2863929-.47568589-.2669458-.75280767v-5.51z" fill="#fff" opacity=".5"/><path d="m44 11c.0143756.0827134.0143756.1672866 0 .25.0089093.0462414.0089093.0937586 0 .14-.0487431.119193-.120049.2278496-.21.32-.0953502.0858873-.2032616.1567042-.32.21-.0462414.0089093-.0937586.0089093-.14 0-.1016187.0537392-.2150534.0812385-.33.0800401-.265803.0014967-.5212812-.1028536-.71-.2900401l-.29-.29-9.42-9.42-.29-.29c-.1871865-.18871883-.2915368-.44419702-.29-.71-.0143756-.08271336-.0143756-.16728664 0-.25-.0089093-.04624144-.0089093-.09375856 0-.14.0955448-.24250703.287493-.43445524.53-.53.0462414-.00890928.0937586-.00890928.14 0 .162386-.05342106.337614-.05342106.5 0 .0462414-.00890928.0937586-.00890928.14 0 .119193.04874313.2278496.12004903.32.21l10 10c.089951.0921504.1612569.200807.21.32.0089093.0462414.0089093.0937586 0 .14.0698909.071497.1243498.156589.16.25z" fill="#101527"/><path d="m55 55.3c-.7953814-.0007002-1.5579306-.3172301-2.12-.88l-5.65-5.65c-.1908556-.1870714-.2988906-.4427541-.3-.71.0011094-.2672459.1091444-.5229286.3-.71l2.77-2.82c.1877666-.1893127.4433625-.2957983.71-.2957983s.5222334.1064856.71.2957983l5.66 5.65c1.1698135 1.1712702 1.1698135 3.0687298 0 4.24-.552232.5530798-1.2985063.8688113-2.08.88zm-5.65-7.24 4.94 4.94c.3900375.3877236 1.0199625.3877236 1.41 0 .3877236-.3900375.3877236-1.0199625 0-1.41l-5-5z" fill="#101527"/><path d="m41 51.0000085c-5.8878662.0066726-11.0451069-3.9447106-12.5707506-9.6314868-1.5256437-5.6867763.9612709-11.6889272 6.0618431-14.6302155 5.1005722-2.9412882 11.5411617-2.0872584 15.6989075 2.0816938 3.7088227 3.7188191 4.8155768 9.3040278 2.8051574 14.1561608s-6.7430201 8.0178795-11.9951574 8.0238477zm0-24.000017c-5.2481012.0065258-9.7606798 3.7195547-10.7777829 8.8681574-1.0171031 5.1486028 1.7445791 10.2986571 6.5959654 12.3003216 4.8513862 2.0016645 10.4411425.2973837 13.3504999-4.0704817 2.9093574-4.3678655 2.3279263-10.1826644-1.3886824-13.8879888-2.0652823-2.0590117-4.8636826-3.2136216-7.78-3.2100085z" fill="#101527"/></g><path d="m40.7626567 37h1c1.3807118-.1380711 2.6119287.8692882 2.7499999 2.25s-.8692881 2.6119288-2.2499999 2.75v1c0 .5522847-.4477152 1-1 1-.5522847 0-1-.4477153-1-1v-1h-1c-.5522847 0-1-.4477153-1-1s.4477153-1 1-1h2.5c.2761424 0 .5-.2238576.5-.5s-.2238576-.5-.5-.5h-1c-1.3807118.1380711-2.6119287-.8692882-2.7499999-2.25s.8692881-2.6119288 2.2499999-2.75v-1c0-.5522847.4477153-1 1-1 .5522848 0 1 .4477153 1 1v1h1c.5522848 0 1 .4477153 1 1s-.4477152 1-1 1h-2.5c-.2761424 0-.5.2238576-.5.5s.2238576.5.5.5z" fill="#101527"/><path d="m34.92 15.62c-.1014749-.2443493-.2956507-.4385251-.54-.54-.1202223-.051241-.2493227-.07842-.38-.08h-4c-.5522847 0-1 .4477153-1 1s.4477153 1 1 1h1.59l-8.09 8.09-3.79-3.8c-.1877666-.1893127-.4433625-.2957983-.71-.2957983s-.5222334.1064856-.71.2957983l-9 9c-.18931265.1877666-.29579832.4433625-.29579832.71s.10648567.5222334.29579832.71c.1877666.1893127.44336246.2957983.71.2957983.2666375 0 .5222334-.1064856.71-.2957983l8.29-8.3 3.79 3.8c.1877666.1893127.4433625.2957983.71.2957983s.5222334-.1064856.71-.2957983l8.79-8.8v1.59c0 .5522847.4477153 1 1 1s1-.4477153 1-1v-4c-.00158-.1306773-.028759-.2597777-.08-.38z" fill="#101527" fill-rule="nonzero"/></g></svg>

<?xml version="1.0" encoding="UTF-8"?>
<svg width="58px" height="58px" viewBox="0 0 58 58" version="1.1" xmlns="http://www.w3.org/2000/svg" xmlns:xlink="http://www.w3.org/1999/xlink">
    <title>Other Group</title>
    <g id="🚧-Sign-up-process-(WIP)(Choosen-one)" stroke="none" stroke-width="1" fill="none" fill-rule="evenodd" opacity="0.8">
        <g id="1.2.1-Sign-up" transform="translate(-662.000000, -634.000000)">
            <g id="Analytics" transform="translate(662.000000, 634.000000)">
                <path d="M29,38 L10,38 C9.44771525,38 9,37.5522847 9,37 C9,36.4477153 9.44771525,36 10,36 L29,36 C29.5522847,36 30,36.4477153 30,37 C30,37.5522847 29.5522847,38 29,38 Z" id="Path" fill="#101527" fill-rule="nonzero"></path>
                <path d="M30.09,44 L10,44 C9.44771525,44 9,43.5522847 9,43 C9,42.4477153 9.44771525,42 10,42 L30.09,42 C30.6422847,42 31.09,42.4477153 31.09,43 C31.09,43.5522847 30.6422847,44 30.09,44 Z" id="Path" fill="#101527" fill-rule="nonzero"></path>
                <path d="M34,50 L10,50 C9.44771525,50 9,49.5522847 9,49 C9,48.4477153 9.44771525,48 10,48 L34,48 C34.5522847,48 35,48.4477153 35,49 C35,49.5522847 34.5522847,50 34,50 Z" id="Path" fill="#101527" fill-rule="nonzero"></path>
                <path d="M43,27.17 C42.4477153,27.17 42,26.7222847 42,26.17 L42,11 C42,10.4477153 42.4477153,10 43,10 C43.5522847,10 44,10.4477153 44,11 L44,26.17 C44,26.7222847 43.5522847,27.17 43,27.17 Z" id="Path" fill="#101527" fill-rule="nonzero"></path>
                <path d="M41,58 L3,58 C1.37996929,58.0335201 0.0382336708,56.7499263 0,55.13 L0,2.87 C0.0382336708,1.25007368 1.37996929,-0.0335200624 3,-4.43872369e-16 L33,-4.43872369e-16 C33.5522847,-4.43872369e-16 34,0.44771525 34,1 C34,1.55228475 33.5522847,2 33,2 L3,2 C2.49474072,1.99571459 2.0656679,2.36900795 2,2.87 L2,55.13 C2.0656679,55.630992 2.49474072,56.0042854 3,56 L41,56 C41.5522847,56 42,55.5522847 42,55 L42,49.83 C42,49.2777153 42.4477153,48.83 43,48.83 C43.5522847,48.83 44,49.2777153 44,49.83 L44,55 C44,56.6568542 42.6568542,58 41,58 Z" id="Path" fill="#101527" fill-rule="nonzero"></path>
                <path d="M44,11 C44.0143756,11.0827134 44.0143756,11.1672866 44,11.25 C44.0089093,11.2962414 44.0089093,11.3437586 44,11.39 C43.9512569,11.509193 43.879951,11.6178496 43.79,11.71 C43.6946498,11.7958873 43.5867384,11.8667042 43.47,11.92 C43.4237586,11.9289093 43.3762414,11.9289093 43.33,11.92 C43.2283813,11.9737392 43.1149466,12.0012385 43,12.0000401 L35,12.0000401 C34.1920724,12.00022 33.4182076,11.6745586 32.8535422,11.0967177 C32.2888769,10.5188768 31.9811483,9.73770765 32,8.93 L32,1 C31.9856244,0.917286637 31.9856244,0.832713363 32,0.75 C31.9910907,0.703758558 31.9910907,0.656241442 32,0.61 C32.0955448,0.367492965 32.287493,0.175544757 32.53,0.08 C32.5762414,0.0710907233 32.6237586,0.0710907233 32.67,0.08 C32.832386,0.0265789436 33.007614,0.0265789436 33.17,0.08 C33.2162414,0.0710907233 33.2637586,0.0710907233 33.31,0.08 C33.429193,0.128743132 33.5378496,0.200049033 33.63,0.29 C33.8468263,0.464813505 33.9809229,0.722134089 34,1 L34,8.93 C33.9805529,9.20712178 34.0772604,9.47984431 34.2669458,9.68280767 C34.4566312,9.88577103 34.7221975,10.0006815 35,10 L43,10 C43.265803,9.99846324 43.5212812,10.1028135 43.71,10.29 C43.799951,10.3821504 43.8712569,10.490807 43.92,10.61 C43.9289093,10.6562414 43.9289093,10.7037586 43.92,10.75 C43.9615529,10.8278151 43.9886576,10.9125175 44,11 L44,11 Z" id="Path" fill="#101527" fill-rule="nonzero"></path>
                <path d="M40.58,10.000003 L35,10.000003 C34.7221975,10.0006815 34.4566312,9.88577103 34.2669458,9.68280767 C34.0772604,9.47984431 33.9805529,9.20712178 34,8.93 L34,3.42 L40.58,10.000003 Z" id="Path" fill="#FFFFFF" fill-rule="nonzero" opacity="0.5"></path>
                <path d="M44,11 C44.0143756,11.0827134 44.0143756,11.1672866 44,11.25 C44.0089093,11.2962414 44.0089093,11.3437586 44,11.39 C43.9512569,11.509193 43.879951,11.6178496 43.79,11.71 C43.6946498,11.7958873 43.5867384,11.8667042 43.47,11.92 C43.4237586,11.9289093 43.3762414,11.9289093 43.33,11.92 C43.2283813,11.9737392 43.1149466,12.0012385 43,12.0000401 C42.734197,12.0015368 42.4787188,11.8971865 42.29,11.71 L42,11.42 L32.58,2 L32.29,1.71 C32.1028135,1.52128117 31.9984632,1.26580298 32,1 C31.9856244,0.917286637 31.9856244,0.832713363 32,0.75 C31.9910907,0.703758558 31.9910907,0.656241442 32,0.61 C32.0955448,0.367492965 32.287493,0.175544757 32.53,0.08 C32.5762414,0.0710907233 32.6237586,0.0710907233 32.67,0.08 C32.832386,0.0265789436 33.007614,0.0265789436 33.17,0.08 C33.2162414,0.0710907233 33.2637586,0.0710907233 33.31,0.08 C33.429193,0.128743132 33.5378496,0.200049033 33.63,0.29 L43.63,10.29 C43.719951,10.3821504 43.7912569,10.490807 43.84,10.61 C43.8489093,10.6562414 43.8489093,10.7037586 43.84,10.75 C43.9098909,10.821497 43.9643498,10.906589 44,11 Z" id="Path" fill="#101527" fill-rule="nonzero"></path>
                <path d="M55,55.3 C54.2046186,55.2992998 53.4420694,54.9827699 52.88,54.42 L47.23,48.77 C47.0391444,48.5829286 46.9311094,48.3272459 46.93,48.06 C46.9311094,47.7927541 47.0391444,47.5370714 47.23,47.35 L50,44.53 C50.1877666,44.3406873 50.4433625,44.2342017 50.71,44.2342017 C50.9766375,44.2342017 51.2322334,44.3406873 51.42,44.53 L57.08,50.18 C58.2498135,51.3512702 58.2498135,53.2487298 57.08,54.42 L57.08,54.42 C56.527768,54.9730798 55.7814937,55.2888113 55,55.3 L55,55.3 Z M49.35,48.06 L54.29,53 C54.6800375,53.3877236 55.3099625,53.3877236 55.7,53 L55.7,53 C56.0877236,52.6099625 56.0877236,51.9800375 55.7,51.59 L50.7,46.59 L49.35,48.06 Z" id="Shape" fill="#101527" fill-rule="nonzero"></path>
                <path d="M41,51.0000085 C35.1121338,51.0066811 29.9548931,47.0552979 28.4292494,41.3685217 C26.9036057,35.6817454 29.3905203,29.6795945 34.4910925,26.7383062 C39.5916647,23.797018 46.0322542,24.6510478 50.19,28.82 L50.19,28.82 C53.8988227,32.5388191 55.0055768,38.1240278 52.9951574,42.9761608 C50.984738,47.8282938 46.2521373,50.9940403 41,51.0000085 L41,51.0000085 Z M41,26.9999915 C35.7518988,27.0065173 31.2393202,30.7195462 30.2222171,35.8681489 C29.205114,41.0167517 31.9667962,46.166806 36.8181825,48.1684705 C41.6695687,50.170135 47.259325,48.4658542 50.1686824,44.0979888 C53.0780398,39.7301233 52.4966087,33.9153244 48.78,30.21 C46.7147177,28.1509883 43.9163174,26.9963784 41,26.9999915 Z" id="Shape" fill="#101527" fill-rule="nonzero"></path>
                <path d="M40.7626567,37 L41.7626567,37 C43.1433685,36.8619289 44.3745854,37.8692882 44.5126566,39.25 C44.6507278,40.6307118 43.6433685,41.8619288 42.2626567,42 L42.2626567,43 C42.2626567,43.5522847 41.8149415,44 41.2626567,44 C40.710372,44 40.2626567,43.5522847 40.2626567,43 L40.2626567,42 L39.2626567,42 C38.710372,42 38.2626567,41.5522847 38.2626567,41 C38.2626567,40.4477153 38.710372,40 39.2626567,40 L41.7626567,40 C42.0387991,40 42.2626567,39.7761424 42.2626567,39.5 C42.2626567,39.2238576 42.0387991,39 41.7626567,39 L40.7626567,39 C39.3819449,39.1380711 38.150728,38.1307118 38.0126568,36.75 C37.8745856,35.3692882 38.8819449,34.1380712 40.2626567,34 L40.2626567,33 C40.2626567,32.4477153 40.710372,32 41.2626567,32 C41.8149415,32 42.2626567,32.4477153 42.2626567,33 L42.2626567,34 L43.2626567,34 C43.8149415,34 44.2626567,34.4477153 44.2626567,35 C44.2626567,35.5522847 43.8149415,36 43.2626567,36 L40.7626567,36 C40.4865143,36 40.2626567,36.2238576 40.2626567,36.5 C40.2626567,36.7761424 40.4865143,37 40.7626567,37 Z" id="Path" fill="#101527"></path>
                <path d="M34.92,15.62 C34.8185251,15.3756507 34.6243493,15.1814749 34.38,15.08 C34.2597777,15.028759 34.1306773,15.00158 34,15 L30,15 C29.4477153,15 29,15.4477153 29,16 C29,16.5522847 29.4477153,17 30,17 L31.59,17 L23.5,25.09 L19.71,21.29 C19.5222334,21.1006873 19.2666375,20.9942017 19,20.9942017 C18.7333625,20.9942017 18.4777666,21.1006873 18.29,21.29 L9.29,30.29 C9.10068735,30.4777666 8.99420168,30.7333625 8.99420168,31 C8.99420168,31.2666375 9.10068735,31.5222334 9.29,31.71 C9.4777666,31.8993127 9.73336246,32.0057983 10,32.0057983 C10.2666375,32.0057983 10.5222334,31.8993127 10.71,31.71 L19,23.41 L22.79,27.21 C22.9777666,27.3993127 23.2333625,27.5057983 23.5,27.5057983 C23.7666375,27.5057983 24.0222334,27.3993127 24.21,27.21 L33,18.41 L33,20 C33,20.5522847 33.4477153,21 34,21 C34.5522847,21 35,20.5522847 35,20 L35,16 C34.99842,15.8693227 34.971241,15.7402223 34.92,15.62 Z" id="Path" fill="#101527" fill-rule="nonzero"></path>
            </g>
        </g>
    </g>
</svg>
